images/icon-mail.svg

<svg height="20" viewBox="0 0 20 20" width="20" xmlns="http://www.w3.org/2000/svg"><path d="m17.3929452 2.6689686h-14.78576712c-.4419863 0-.82035616.16684827-1.13510959.50067558-.31475342.33382731-.47206849.73512619-.47206849 1.20389662v11.5909864c0 .4687704.15731507.8698077.47206849 1.203635.31475343.3340889.69312329.5008064 1.13510959.5008064h14.78576712c.441863 0 .8202329-.1667175 1.1349863-.5008064.3148767-.3338273.4720685-.7349954.4720685-1.203635v-11.5909864c0-.46877043-.1571918-.87006931-.4720685-1.20389662-.3147534-.33382731-.6931233-.50067558-1.1349863-.50067558zm-.3930571 12.8158754c0 .0767897-.028863.1432464-.0865889.1993703-.057726.0561239-.1260798.084077-.2049496.084077h-13.41669925c-.07898164 0-.14733545-.0279531-.20506141-.084077s-.08658894-.1225806-.08658894-.1993703v-6.80567248c.19443357.21263988.40408173.40765947.62894449.58484124 1.62852097 1.21699624 2.92276835 2.21537034 3.88285401 2.99523114.30988549.2540802.56204502.4519277.75647859.5937602.19443357.1418324.45722094.28497.78836211.4297392.33114118.1447691.64259288.2169905.93424323.2169905h.00917347.0090617c.2915384 0 .6032139-.0722214.9342432-.2169905.331253-.1447692.5941523-.2879068.7885859-.4297392.1943216-.1418325.4465931-.33968.7564785-.5937602.9600857-.7798608 2.2542212-1.7782349 3.8827422-2.99523114.2248627-.17718177.4346228-.37220136.6288326-.58484124v6.80567248zm-.1403472-10.33965154v.096841c0 .34629305-.1402924.73236007-.4209883 1.15787684-.280696.42562484-.5842923.76467643-.9102331 1.01704667-1.1654719.89242874-2.3759663 1.82279407-3.632039 2.79142023-.0362404.0292901-.1419599.1159714-.3170475.2597198-.1749764.1438564-.3139348.2540995-.4166529.330297-.102718.0764136-.2368963.1688232-.4029793.277337-.1660831.1085138-.3184927.1893588-.4573399.2421025-.1388472.0527438-.26869.0791157-.38941702.0791157h-.0090045-.00911567c-.12072706 0-.25045862-.0263719-.38941702-.0791157-.13884723-.0527437-.29136796-.1335887-.45733987-.2421025s-.30037248-.2009234-.40297936-.277337c-.10260688-.0761975-.24156527-.1864406-.41665285-.330297-.17508759-.1437484-.28080713-.2304297-.31704748-.2597198-1.25585042-.96862616-2.46645597-1.89899149-3.63181668-2.79142023-.88766624-.68091329-1.33144378-1.5145457-1.33144378-2.50078915 0-.07630552.02868102-.1423433.08604304-.19811334.05736203-.05577005.12528489-.08365507.2037686-.08365507h13.33211329c.0482464.02637188.0904897.03372142.1268412.02204862.0362404-.01188896.0633651.01015966.0813741.0659297.0181202.05577005.034684.08214192.0498027.07922372.0151186-.00291819.0242343.03372142.0272358.11013503.0027792.07630552.0043355.11467444.0043355.11467444z" fill="#fff" fill-rule="evenodd"/></svg>

<?xml version="1.0" encoding="UTF-8" standalone="no"?>
<svg width="20px" height="20px" viewBox="0 0 20 20" version="1.1" xmlns="http://www.w3.org/2000/svg" xmlns:xlink="http://www.w3.org/1999/xlink">
    <!-- Generator: Sketch 41 (35326) - http://www.bohemiancoding.com/sketch -->
    <title>icon-mail</title>
    <desc>Created with Sketch.</desc>
    <defs></defs>
    <g id="Page-1" stroke="none" stroke-width="1" fill="none" fill-rule="evenodd">
        <g id="icon-mail" fill="#FFFFFF">
            <path d="M17.3929452,2.6689686 L2.60717808,2.6689686 C2.16519178,2.6689686 1.78682192,2.83581687 1.47206849,3.16964418 C1.15731507,3.50347149 1,3.90477037 1,4.3735408 L1,15.9645272 C1,16.4332976 1.15731507,16.8343349 1.47206849,17.1681622 C1.78682192,17.5022511 2.16519178,17.6689686 2.60717808,17.6689686 L17.3929452,17.6689686 C17.8348082,17.6689686 18.2131781,17.5022511 18.5279315,17.1681622 C18.8428082,16.8343349 19,16.4331668 19,15.9645272 L19,4.3735408 C19,3.90477037 18.8428082,3.50347149 18.5279315,3.16964418 C18.2131781,2.83581687 17.8348082,2.6689686 17.3929452,2.6689686 Z M16.9998881,15.484844 C16.9998881,15.5616337 16.9710251,15.6280904 16.9132992,15.6842143 C16.8555732,15.7403382 16.7872194,15.7682913 16.7083496,15.7682913 L3.29165035,15.7682913 C3.21266871,15.7682913 3.1443149,15.7403382 3.08658894,15.6842143 C3.02886298,15.6280904 3,15.5616337 3,15.484844 L3,8.67917152 C3.19443357,8.8918114 3.40408173,9.08683099 3.62894449,9.26401276 C5.25746546,10.481009 6.55171284,11.4793831 7.5117985,12.2592439 C7.82168399,12.5133241 8.07384352,12.7111716 8.26827709,12.8530041 C8.46271066,12.9948365 8.72549803,13.1379741 9.0566392,13.2827433 C9.38778038,13.4275124 9.69923208,13.4997338 9.99088243,13.4997338 L10.0000559,13.4997338 L10.0091176,13.4997338 C10.300656,13.4997338 10.6123315,13.4275124 10.9433608,13.2827433 C11.2746138,13.1379741 11.5375131,12.9948365 11.7319467,12.8530041 C11.9262683,12.7111716 12.1785398,12.5133241 12.4884252,12.2592439 C13.4485109,11.4793831 14.7426464,10.481009 16.3711674,9.26401276 C16.5960301,9.08683099 16.8057902,8.8918114 17,8.67917152 L17,15.484844 L16.9998881,15.484844 Z M16.8595409,5.14519246 L16.8595409,5.24203346 C16.8595409,5.58832651 16.7192485,5.97439353 16.4385526,6.3999103 C16.1578566,6.82553514 15.8542603,7.16458673 15.5283195,7.41695697 C14.3628476,8.30938571 13.1523532,9.23975104 11.8962805,10.2083772 C11.8600401,10.2376673 11.7543206,10.3243486 11.579233,10.468097 C11.4042566,10.6119534 11.2652982,10.7221965 11.1625801,10.798394 C11.0598621,10.8748076 10.9256838,10.9672172 10.7596008,11.075731 C10.5935177,11.1842448 10.4411081,11.2650898 10.3022609,11.3178335 C10.1634137,11.3705773 10.0335709,11.3969492 9.91284388,11.3969492 L9.90383938,11.3969492 L9.89472371,11.3969492 C9.77399665,11.3969492 9.64426509,11.3705773 9.50530669,11.3178335 C9.36645946,11.2650898 9.21393873,11.1842448 9.04796682,11.075731 C8.88199491,10.9672172 8.74759434,10.8748076 8.64498746,10.798394 C8.54238058,10.7221965 8.40342219,10.6119534 8.22833461,10.468097 C8.05324702,10.3243486 7.94752748,10.2376673 7.91128713,10.2083772 C6.65543671,9.23975104 5.44483116,8.30938571 4.27947045,7.41695697 C3.39180421,6.73604368 2.94802667,5.90241127 2.94802667,4.91616782 C2.94802667,4.8398623 2.97670769,4.77382452 3.03406971,4.71805448 C3.09143174,4.66228443 3.1593546,4.63439941 3.23783831,4.63439941 L16.5699516,4.63439941 C16.618198,4.66077129 16.6604413,4.66812083 16.6967928,4.65644803 C16.7330332,4.64455907 16.7601579,4.66660769 16.7781669,4.72237773 C16.7962871,4.77814778 16.8128509,4.80451965 16.8279696,4.80160145 C16.8430882,4.79868326 16.8522039,4.83532287 16.8552054,4.91173648 C16.8579846,4.988042 16.8595409,5.02641092 16.8595409,5.02641092 L16.8595409,5.14519246 L16.8595409,5.14519246 Z"></path>
        </g>
    </g>
</svg>
